Origami/64x64/apps/mkvmergeGUI.svg

<svg width="64" height="64" version="1" xmlns="http://www.w3.org/2000/svg">
 <path d="m4 56v2c0 1.662 1.338 3 3 3h50c1.662 0 3-1.338 3-3v-2c0 1.662-1.338 3-3 3h-50c-1.662 0-3-1.338-3-3z" style="opacity:.2"/>
 <rect transform="matrix(0,-1,-1,0,0,0)" x="-60" y="-60" width="56" height="56" rx="3" ry="3" style="fill:#cccccc"/>
 <path d="m7 4c-1.662 0-3 1.338-3 3v1c0-1.662 1.338-3 3-3h50c1.662 0 3 1.338 3 3v-1c0-1.662-1.338-3-3-3h-50z" style="fill:#ffffff;opacity:.1"/>
 <path d="m45.624 25.434a17.1802 12.7472 59 0 1 -21.852 13.132 17.1802 12.7472 59 0 1 21.852 -13.132z" style="fill:none;stroke-width:1.43;stroke:#474747"/>
 <path d="m34 24c-5.5242 0-10 4.4746-10 10s4.4746 10 10 10 10-4.4746 10-10-4.4746-10-10-10zm-1.7885 5.2848c3.7566 0 6.8288 3.032 6.8288 6.7886s-3.0724 6.8288-6.8288 6.8288c-3.7566 0-6.7886-3.0724-6.7886-6.8288 0-3.7566 3.032-6.7886 6.7886-6.7886z" style="fill:#2a58ae"/>
 <path d="m13.7208 32.992s-4.017 3.8358-3.7034 6.2316c0.43292 3.3044 4.5824 3.8314 7.8572 3.7932 7.9394-0.09 36.218-9.368 36.126-20.5-0.03-3.5982-6.502-3.9162-6.502-3.7028 0 0 4.8004 1.20452 4.6958 3.5222-0.39022 8.6392-24.01 18.3386-34.5 18.6036-2.2018 0.056-5.266-0.42-6.1422-2.44-0.7848-1.81 2.1676-5.508 2.1676-5.508z" style="fill:#474747"/>
 <path d="m46 23a5 5 0 0 1 -10 0 5 5 0 1 1 10 0z" style="fill:#d24646"/>
 <path d="m32 39.002a3 3 0 0 1 -6 0 3 3 0 1 1 6 0z" style="fill:#606060"/>
</svg>

<svg xmlns="http://www.w3.org/2000/svg" width="64" height="64" version="1">
 <path style="opacity:0.2" d="m 4,56 0,2 c 0,1.662 1.338,3 3,3 l 50,0 c 1.662,0 3,-1.338 3,-3 l 0,-2 c 0,1.662 -1.338,3 -3,3 L 7,59 C 5.338,59 4,57.662 4,56 Z"/>
 <rect style="fill:#cccccc" width="56" height="56" x="-60" y="-60" rx="3" ry="3" transform="matrix(0,-1,-1,0,0,0)"/>
 <path style="opacity:0.1;fill:#ffffff" d="M 7 4 C 5.338 4 4 5.338 4 7 L 4 8 C 4 6.338 5.338 5 7 5 L 57 5 C 58.662 5 60 6.338 60 8 L 60 7 C 60 5.338 58.662 4 57 4 L 7 4 z"/>
 <path style="fill:none;stroke:#474747;stroke-width:1.42999995" d="M 45.624,25.434 A 17.1802,12.7472 59 0 1 23.772,38.566 17.1802,12.7472 59 0 1 45.624,25.434 Z"/>
 <path style="fill:#2a58ae" d="m 34,24 c -5.5242,0 -10,4.4746 -10,10 0,5.5254 4.4746,10 10,10 5.5254,0 10,-4.4746 10,-10 0,-5.5254 -4.4746,-10 -10,-10 z m -1.7885,5.2848 c 3.7566,0 6.8288,3.032 6.8288,6.7886 0,3.7566 -3.0724,6.8288 -6.8288,6.8288 -3.7566,0 -6.7886,-3.0724 -6.7886,-6.8288 0,-3.7566 3.032,-6.7886 6.7886,-6.7886 z"/>
 <path style="fill:#474747" d="m 13.7208,32.992 c 0,0 -4.017,3.8358 -3.7034,6.2316 0.43292,3.3044 4.5824,3.8314 7.8572,3.7932 7.9394,-0.09 36.218,-9.368 36.126,-20.5 -0.03,-3.5982 -6.502,-3.9162 -6.502,-3.7028 0,0 4.8004,1.20452 4.6958,3.5222 -0.39022,8.6392 -24.01,18.3386 -34.5,18.6036 -2.2018,0.056 -5.266,-0.42 -6.1422,-2.44 -0.7848,-1.81 2.1676,-5.508 2.1676,-5.508 z"/>
 <path style="fill:#d24646" d="m 46,23 a 5,5 0 0 1 -10,0 5,5 0 1 1 10,0 z"/>
 <path style="fill:#606060" d="m 32,39.002 a 3,3 0 0 1 -6,0 3,3 0 1 1 6,0 z"/>
</svg>
